!!!OTL: ES WAR EINE STOLZE JUEDIN
!!!ARE: Europa, Mitteleuropa, Deutschland, Schlesien
!!!SCT: E0098C
!!!YEM: Copyright 1995, estate of Helmut Schaffrath.
**kern
*ICvox
*Ivox
*M3/4
*k[b-]
*F:
{8c
=1
8f
8g
4a
4b-
=2
4cc
4cc
8r}
{8ff
=3
8ee
8dd
4cc
4bn
=4
2cc
8r}
{8cc
=5
8ff
8a
4cc
8dd
8ee
=6
4ff
4cc
8r}
{8cc
=7
8dd
8ee
4ff
8ee
8dd
=8
4cc
4a
8r}
{8cc
=9
8dd
8b-
4a
4g
=10
2f
8r}
==
!!!AGN: erzaehlendes Volks - Lied, Sage, Liebe, Leid, Ballade ?
!!!ONB: ESAC (Essen Associative Code) Database: ERK1
!!!AMT: simple triple
!!!AIN: vox
!!!EED: Helmut Schaffrath
!!!EEV: 1.0
*-
